!!!!SEGMENT: pl-kk--kk-i-389--003-002_anonim--missa-no-3-kyrie.krn
!!!cenid: 17xx:2469
!!!COM: Anonim
!!!COM-rismID: pe30004985
!!!CDT:
!!!CNT:
!!!OPR: [Missa] No. 3.
!!!OTL: Kyrie
!!!OMV: 002
!!!PDT:
!!!AGN: Sacred; Mass
!!!YEC: Copyright 2022 Narodowy Instytut Fryderyka Chopina (https://polishscores.org)
!!!YEM: License CC-BY-4.0 (https://creativecommons.org/licenses/by/4.0)
!!!SMS-siglum: PL-Kk
!!!SMS-shelfmark: Kk.I.389
!!!SMS-variant:
!!!SMS-altvar:
!!!SMS-shelfwork: 003-002 M
!!!NIFC-rismSourceID: 1001146182
!!!NIFC-rismChildID: 1001146400
!!!NIFC-islandoraID: pl-kk:6976
!!!URL-pdf-islandora: https://repozytorium.nifc.pl/islandora/object/pl-kk%3A6976/datastream/PDF/view
!!!URL-scan: https://polish.musicsources.pl/pl/lokalizacje/galeria/rekopisy/5999/1 @EN{Scan on Polish Music Sources Website} @PL{Skany w portalu Dziedzictwo Muzyki Polskiej w otwartym dostępie}
!!!IIIF:
!!!ONB-nifc: UWAGA: S – skan 6-7, A – 25-26 , T – 44-45 , B – 63-64 . Części Mszy: Rorate, Kyrie, Gloria, Graduale, Sanctus, Benedictus, Agnus, Dona
!!!AIN: 1 alto 1 bass 1 soprn 1 tenor
!!!key: F
**kern	**text	**kern	**text	**kern	**text	**kern	**text
*part4	*part4	*part3	*part3	*part2	*part2	*part1	*part1
*staff4	*staff4	*staff3	*staff3	*staff2	*staff2	*staff1	*staff1
*I"Basso.	*	*I"Tenore.	*	*I"Alto.	*	*I"Soprano.	*
*I'[B]	*	*I'[T]	*	*I'[A]	*	*I'[S]	*
*ICvox	*	*ICvox	*	*ICvox	*	*ICvox	*
*Ibass	*	*Itenor	*	*Ialto	*	*Isoprn	*
*clefF4	*	*clefC4	*	*clefC3	*	*clefC1	*
*k[b-]	*	*k[b-]	*	*k[b-]	*	*k[b-]	*
*F:	*	*F:	*	*F:	*	*F:	*
*M2/2	*	*M2/2	*	*M2/2	*	*M2/2	*
*met(C|)	*	*met(C|)	*	*met(C|)	*	*met(C|)	*
=1	=1	=1	=1	=1	=1	=1	=1
!!LO:TX:t=P:problem: all\right	!	!	!	!	!	!	!
4.F\	Ky-	4.A/	Ky-	4.c/	Ky-	4.ff\	Ky-
8F\	-ri-	8G/	-ri-	8B-/	-ri-	8cc\	-ri-
!	!	!	!	!LO:TX:t=P:problem:mixed beam	!	!	!
4A\	-e	8F/L	-e	8A/L	-e-	4cc\	-e
.	.	8A/	.	8f\	.	.	.
4F\	e-	8c/	.	8a\	.	4cc\	e-
.	.	8A/J	e-	8f\J	.	.	.
=2	=2	=2	=2	=2	=2	=2	=2
.	.	.	.	8qg/	.	.	.
4c\	-lei-	4A/	-lei-	4f\	-lei-	4cc\	-lei-
4C/	-son	4G/	-son,	4e\	-son	4cc\	-son
4r	.	4r	.	4r	.	4r	.
4F\	e-	8A\L	e-	8f\L	e-	8cc\L	e-
.	.	8B-\J	.	8d\J	.	8dd\J	.
=3	=3	=3	=3	=3	=3	=3	=3
4F\	-le-	8B-/L	-le-	8d/L	-lei-	4ff\	-lei-
.	.	8A/J	-i-	8c/J	.	.	.
4AA/	.	8G/	-son	8B-/	-son	8cc\	-son
.	.	8F/	e-	8A/	e-	8cc\	e-
*	*	*	*	*	*	*2\right	*
4BB-/	.	8A/L	-le-	8c/L	-le-	2cc\	-lei-
.	.	8G/	.	8B-/	.	.	.
4C/	-i-	8F/	.	8A/	.	.	.
.	.	8E/J	-i-	8G/J	-i-	.	.
=4	=4	=4	=4	=4	=4	=4	=4
*2\right	*	*	*	*	*	*	*
2F\	-son,	2F/	-son,	2A/	-son	2cc\	-son
4r	.	8r	.	8r	.	4r	.
.	.	8A\L	e-	8f\L	e-	.	.
8r	.	8c\	.	8a\	.	8r	.
8F\	e-	8A\J	.	8f\J	.	8cc\	e-
!	!	!LO:LB:g=original	!	!	!	!	!
=5	=5	=5	=5	=5	=5	=5	=5
4c\	-lei-	4A/	-lei-	4f\	-lei-	4cc\	-lei-
4C/	-son	4G/	-son,	4e\	-son	4cc\	-son
4r	.	8r	.	8r	.	4r	.
.	.	8B-\L	e-	8g\L	e-	.	.
8r	.	8d\	.	8b-\	.	8r	.
8C/	e-	8B-\J	.	8g\J	.	8ee\	e-
!LO:LB:g=original	!	!	!	!LO:LB:g=original	!	!LO:LB:g=original	!
=6	=6	=6	=6	=6	=6	=6	=6
4C/	-lei-	4B-\	-lei-	4g\	-lei-	4cc\	-lei-
4F\	-son	4A\	-son	4f\	-son	4cc\	-son
*	*	*2\right	*	*2\right	*	*	*
2F\	e-	2c\	e-	2a\	e-	4r	.
.	.	.	.	.	.	4ff\	e-
=7	=7	=7	=7	=7	=7	=7	=7
2F\	-le-	8c\L	-le-	8a\L	-le-	2cc\	-le-
.	.	8B-\	.	8g\	.	.	.
.	.	8d\	.	8b-\	.	.	.
.	.	8c\J	.	8a\J	.	.	.
4BB-/	.	8c\L	.	8a\L	.	2dd\	-i-
.	.	8B-\	.	8g\	.	.	.
4BBn/	-i-	8B-\	.	8g\	.	.	.
.	.	8A\J	-i-	8f\J	-i-	.	.
=8	=8	=8	=8	=8	=8	=8	=8
.	.	.	.	8qf/	.	.	.
2C/	-son.	2G/	-son,	2e\	-son	2cc\	-son,
2r	.	2r	.	2r	.	2r	.
=9	=9	=9	=9	=9	=9	=9	=9
2C/	Chri-	4.e\	Ky-	4.g\	Chri-	4.cc\	Chri-
.	.	8d\	-ri-	8f\	.	8bn\	.
4C/	-ste	4c\	-e	4e\	-ste	4g\	-ste
4C/	e-	4e\	e-	4g\	e-	4cc\	e-
=10	=10	=10	=10	=10	=10	=10	=10
4G\	-lei-	8e\L	-lei-	8g\L	-lei-	8cc\L	-lei-
.	.	8d\J	.	8f\J	.	8dd\J	.
4GG/	-son	4Bn\	-son.	4d\	-son	4ff\	-son
2r	.	2r	.	2r	.	2r	.
!	!	!LO:LB:g=original	!	!	!	!	!
=11	=11	=11	=11	=11	=11	=11	=11
4GG/	Chri-	4.d\	Chri-	4.f\	Chri-	4.bn\	Chri-
4G\	.	.	.	.	.	.	.
.	.	8c\	.	8e\	.	8cc\	.
4G\	-ste	4Bn\	-ste	4d\	-ste	4dd\	-ste
4G\	e-	4d\	e-	4f\	e-	4b\	e-
=12	=12	=12	=12	=12	=12	=12	=12
4c\	-lei-	4.c\	-lei-	4.e\	-le-	2g/	-lei-
4G\	.	.	.	.	.	.	.
.	.	8d\	-son	8f\	-i-	.	.
!	!	!	!	!LO:LB:g=original	!	!	!
4E\	-son	4e\	.	4g\	-son,	4g/	-son
4C\	e-	8c\L	e-	8e\L	e-	4g/	e-
.	.	8G\J	.	8c\J	.	.	.
!LO:LB:g=original	!	!	!	!	!	!LO:LB:g=original	!
=13	=13	=13	=13	=13	=13	=13	=13
2GG/	-le-	8G\L	-le-	8Bn/L	-le-	1g	-lei-
.	.	8A\	.	8c/	.	.	.
.	.	8A\	.	8c/	.	.	.
.	.	8Bn\J	.	8d/J	.	.	.
2G\	-i-	8B\L	.	8d\L	.	.	.
.	.	8c\	.	8e\	.	.	.
.	.	8c\	.	8e\	.	.	.
.	.	8d\J	.	8f\J	-i-	.	.
=14	=14	=14	=14	=14	=14	=14	=14
2G\	-son,	2d\	-son	2f\	-son	2bn\	-son
2r	.	8r	.	8r	.	2r	.
.	.	8f\L	e-	8a\L	e-	.	.
.	.	8e\	.	8g\	.	.	.
.	.	8d\J	.	8f\J	.	.	.
=15	=15	=15	=15	=15	=15	=15	=15
4C\	e-	8c\L	-le-	8e\L	-le-	4g\	e-
.	.	8e\	.	8g\	.	.	.
4F\	.	8f\	.	8a\	.	4a\	.
.	.	8d\J	.	8f\J	.	.	.
4G\	-le-	4c\	.	4e\	.	2g\	-lei-
4GG/	-i-	4Bn\	-i-	4d\	-i-	.	.
=16	=16	=16	=16	=16	=16	=16	=16
2C/	-son,	2c\	-son.	2e\	-son,	2g\	-son,
2r	.	2r	.	2r	.	2r	.
!	!	!LO:LB:g=original	!	!	!	!	!
=17!|:	=17!|:	=17!|:	=17!|:	=17!|:	=17!|:	=17!|:	=17!|:
4.F\	Ky-	4.A\	Ky-	4.f\	Ky-	4.cc\	Ky-
8F\	-ri-	8A\	-ri-	8c\	-ri-	8ff\	-ri-
4A\	-e	4A\	-e	4c\	-e	4ff\	-e
4F\	e-	8B-\L	e-	8d\L	e-	4ff\	e-
.	.	8c\J	.	8e-X\J	.	.	.
!	!	!	!	!LO:PB:g=original	!	!	!
=18	=18	=18	=18	=18	=18	=18	=18
4B-\	-le-	8d\L	-le-	8f\L	-le-	2ff\	-lei-
.	.	8B-\	.	8d\	.	.	.
4F\	-i-	8A\	.	8c\	.	.	.
.	.	8c\J	-i-	8e-X\J	-i-	.	.
4BB-/	-son	4B-\	-son	4d\	-son	4ff\	-son
4r	.	4r	.	4r	.	4r	.
=19	=19	=19	=19	=19	=19	=19	=19
4.G\	Ky-	4.Bn\	Ky-	4.g\	Ky-	4.dd\	Ky-
8G\	-ri-	8B\	-ri-	8d\	-ri-	8gg\	-ri-
4Bn\	-e	4B\	-e	4d\	-e	4gg\	-e
4G\	e-	8c\L	e-	8en\L	e-	4gg\	e-
.	.	8d\J	.	8f\J	.	.	.
!LO:PB:g=original	!	!	!	!	!	!	!
=20	=20	=20	=20	=20	=20	=20	=20
4c\	-le-	8e\L	-le-	8g\L	-le-	2gg\	-lei-
.	.	8c\	.	8e\	.	.	.
4G\	-i-	8B-\	.	8d\	.	.	.
.	.	8d\J	-i-	8f\J	-i-	.	.
4C/	-son	4c\	-son.	4e\	-son	4gg\	-son
4r	.	4r	.	4r	.	4r	.
=21	=21	=21	=21	=21	=21	=21	=21
4.C/	Ky-	4.G\	Ky-	4.e\	Ky-	4.ee\	Ky-
8C/	-ri-	8A\	-ri-	8f\	-ri-	8ee\	-ri-
!	!	!	!	!	!	!LO:LB:g=original	!
4E/	-e	4B-\	-e	4g\	-e	4ee\	-e
4C/	e-	4g\	e-	4b-X\	e-	4cc\	e-
!	!	!LO:PB:g=original	!	!	!	!	!
=22	=22	=22	=22	=22	=22	=22	=22
4F\	-le-	4f\	-le-	4a\	-lei-	2cc\	-lei-
4C/	-i-	4e\	-i-	4g\	.	.	.
4F\	-son	4c\	-son	4f\	-son	4a\	-son
4E\	e-	4e\	e-	4g\	e-	4cc\	e-
=23	=23	=23	=23	=23	=23	=23	=23
4F\	-le-	4c\	-le-	4a\	-le-	4a\	-le-
4A\	.	8d\L	.	8b-\L	.	4dd\	.
.	.	8B-\J	.	8g\J	.	.	.
4c\	.	4A\	.	4f\	.	2cc\	-i-
4C/	-i-	8B-\L	-i-	8g\L	-i-	.	.
.	.	8G\J	.	8e\J	.	.	.
=24	=24	=24	=24	=24	=24	=24	=24
2F\	-son.	2A\	-son	2f\	-son.	2cc\	-son.
!	!	!	!	!LO:TX:a:t=Repris&colon;	!	!	!
2r	.	2r	.	2r	.	2r	.
=25:|!	=25:|!	=25:|!	=25:|!	=25:|!	=25:|!	=25:|!	=25:|!
!LO:TX:t=P:problem:ze względu na tenor powtórzyłem takty 17-24	!	!	!	!LO:TX:t=P:problem:ze względu na tenor powtórzyłem takty 17-24	!	!LO:TX:t=P:problem:ze względu na tenor powtórzyłem takty 17-24	!
4.F\yy	Ky-	4.A\	Ky-	4.f\yy	Ky-	4.cc\yy	Ky-
8F\yy	-ri-	8A\	-ri-	8c\yy	-ri-	8ff\yy	-ri-
4A\yy	-e	4A\	-e	4c\yy	-e	4ff\yy	-e
[4F\yy	e-	8B-\L	e-	8d\Lyy	e-	[4ff\yy	e-
.	.	8c\J	.	[8e-X\Jyy	.	.	.
=26	=26	=26	=26	=26	=26	=26	=26
4B-\yy]	-le-	8d\L	-le-	8f\Lyy]	-le-	2ff\yy]	-lei-
.	.	8B-\	.	8d\yy	.	.	.
4F\yy	-i-	8A\	.	8c\yy	.	.	.
.	.	8c\J	-i-	8e-X\Jyy	-i-	.	.
4BB-/yy	-son	4B-\	-son,	4d\yy	-son	4ff\yy	-son
4ryy	.	4r	.	4ryy	.	4ryy	.
=27	=27	=27	=27	=27	=27	=27	=27
4.G\yy	Ky-	4.Bn\	Ky-	4.g\yy	Ky-	4.dd\yy	Ky-
8G\yy	-ri-	8B\	-ri-	8d\yy	-ri-	8gg\yy	-ri-
!	!	!LO:LB:g=original	!	!	!	!	!
4Bn\yy	-e	4Bn\	-e	4d\yy	-e	4gg\yy	-e
[4G\yy	e-	8c\L	e-	8en\Lyy	e-	[4gg\yy	e-
.	.	8d\J	.	[8f\Jyy	.	.	.
=28	=28	=28	=28	=28	=28	=28	=28
4c\yy]	-le-	8e\L	-le-	8g\Lyy]	-le-	2gg\yy]	-lei-
.	.	8c\	.	8e\yy	.	.	.
4G\yy	-i-	8Bn\	.	8d\yy	.	.	.
.	.	8d\J	-i-	8f\Jyy	-i-	.	.
4C/yy	-son	4c\	-son,	4e\yy	-son	4gg\yy	-son
4ryy	.	4r	.	4ryy	.	4ryy	.
=29	=29	=29	=29	=29	=29	=29	=29
4.C/yy	Ky-	4.G/	Ky-	4.e\yy	Ky-	4.ee\yy	Ky-
8C/yy	-ri-	8A\	-ri-	8f\yy	-ri-	8ee\yy	-ri-
4E/yy	-e	4B-\	-e	4g\yy	-e	4ee\yy	-e
[4C/yy	e-	4g\	e-	[4b-X\yy	e-	[4cc\yy	e-
=30	=30	=30	=30	=30	=30	=30	=30
4F\yy]	-le-	4f\	-le-	4a\yy]	-lei-	2cc\yy]	-lei-
4C/yy	-i-	4e\	-i-	4g\yy	.	.	.
4F\yy	-son	4c\	-son	4f\yy	-son	4a\yy	-son
[4E\yy	e-	4e\	e-	[4g\yy	e-	[4cc\yy	e-
=31	=31	=31	=31	=31	=31	=31	=31
4F\yy]	-le-	4c\	-le-	4a\yy]	-le-	4a\yy]	-le-
4A\yy	.	8d\L	.	8b-\Lyy	.	4dd\yy	.
.	.	8B-\J	.	8g\Jyy	.	.	.
4c\yy	.	4A\	.	4f\yy	.	[2cc\yy	-i-
[4C/yy	-i-	8B-\L	.	8g\Lyy	-i-	.	.
.	.	8G\J	-i-	[8e\Jyy	.	.	.
=32	=32	=32	=32	=32	=32	=32	=32
2F\yy]	-son.	2A\	-son.	2f\yy]	-son.	2cc\yy]	-son.
!	!	!	!	!yyLO:TX:a:t=Repris&colon;	!	!	!
2ryy	.	2r	.	2ryy	.	2ryy	.
==	==	==	==	==	==	==	==
*-	*-	*-	*-	*-	*-	*-	*-
!!!system-decoration: [(s1,s2,s3,s4)]
!!!ENC: Andrzej Gręziak
!!!END: 2023-11-06
!!!EED: Jan Barakat
!!!EEV: 2023-11-28
